X:1
T:Title
%%score { ( 1 3 4 6 ) | ( 2 5 7 ) }
L:1/8
M:4/4
K:A
V:1 treble nm="Grand Piano"
V:3 treble 
V:4 treble 
V:6 treble 
V:2 bass 
V:5 bass 
V:7 bass 
V:1
 z4 z2[Q:1/4=100] [A,C]>[B,D] | [CE]>[=C^D] [^CE]>[=DF] [CE]2 [EA]>B | c>=c ^c>d c2 [DB]>[CA] | %3
 G6 z2 | z/ E3/2- E4 z2 | [CE]>[=C^D] [^CE]>[=DF] [CE]2 [EA]>[EB] | c>=c ^c>d c2 [DB]>[CA] | %7
 G6 z2 | %8
[M:27/32] z/ E/4-E/4-E/4-E/4-E/4-E/4-E/4-E/4-E/4-E/4-E/4-E/4-E/4-E/4-E/4-E/4-E/4-E/4-E/4-E/4-E/4-E/-<E/ | %9
[M:1/4] (3:2:2E2 E |[M:4/4] (9:8:8d2- [Ed]2- [Ed-]/ [E-d]3/2[EG]/[EA]/-[EA]3/2B/ | %11
 c6- c/4 z/4 z/ z | (9:8:8B2- [EB]2- [EB-]/ [A-B]3/2[AB]/[Ac]/-[Ac]3/2^d/ | e6- e/4 z/4 z/ z | %14
 c4- c3/2-c/4 z/4 z2 |[M:9/8] A6- A-A/4 z/4 z/ z |[M:4/4] z4 (5:4:5c2- c/ A/-A3/2c/ | %17
[M:3/4] (3B3- [G,B]3 [CA]3 |] %18
V:2
 z4 z2 [A,,E,]>[A,,E,] | [A,,A,]>[A,,A,] [A,,A,]>[A,,A,] [A,,A,]2 [C,A,]>[E,G,E] | %2
 [A,E]>[A,^D] [A,E]>[A,F] [A,E]2[K:bass] [A,,E,]>[A,,E,] | %3
 [B,,E,]2 [B,,E,]2 [D,B,]2 [E,B,D]>[E,B,D] | %4
 [A,,A,]<[A,,A,] [A,,A,]>[A,,E,] [A,,F,]<[A,,E,] [A,,E,A,]>[A,,E,] | %5
 [A,,A,]>[A,,A,] [A,,A,]>[A,,A,] [A,,A,]2 [C,A,]>[D,G,] | %6
 [A,E]>[A,^D] [A,E]>[A,F] [A,E]2[K:bass] [B,,E,]>[A,,E,] | %7
 [B,,E,B,]2 [B,,G,]2 [B,,B,]2 [B,,A,]>[B,,B,] | %8
[M:27/32] [E,A,B,]/[E,G,B,]/4-[E,G,B,]/4-[E,G,B,]/-<[E,G,B,]/[E,G,]/4-[E,G,]/4-[E,G,]/-<[E,G,]/[E,A,]/[E,B,]/[E,B,]/4-[E,B,]/4-[E,B,]/4-[E,B,]/4-[E,B,]/4-[E,B,]/-<[E,B,]/- | %9
[M:1/4] [E,B,]/4 z/4 z/ z | %10
[M:4/4] (9:8:8[E,G,E]2 [E,G,]2- [E,G,]/ [E,G,]3/2[D,B,]/[C,A,]/-[C,A,]3/2[E,G,]/ | %11
 (3:2:2[A,E]3 A,3 z4 | (3:2:2[G,B,E]3 [G,B,]3 z4 | z4 (3[E,D]3 z z2 | %14
 (3:2:2[A,E]3 A,3 z4[K:treble][K:bass] |[M:9/8] C2 [E,C]- [E,C]-[E,C]/4 z/4 z/ z z E3/2-E/4 z/4 | %16
[M:4/4] (3:2:2[E,A,C]3[K:treble] F3 z4[K:bass] |[M:3/4] (3[A,D-]3 D3 [A,,E,]3 |] %18
V:3
 x8 | x8 | x8 | D2 D2 D2 F>G | [DF]<C C>C D<C C>[B,D] | x8 | x8 | z2 E2 ^D2 [DF]>[DG] | %8
[M:27/32] F/ z/4 z/4 z/4 z/4 z/ B,/4-B,/4-B,/-<B,/C/D/D/4-D/4-D/4-D/4-D/4-D/-<D/ |[M:1/4] x2 | %10
[M:4/4] x481/60 | z4 (5:4:5E2- E/ c/-c3/2c/ | x8 | z4 (5:4:5B2- B/ e/-e3/2d/ | %14
 z4 (5:4:5[G,^E]2- [G,E]/ [C^EG]/-[CEG]3/2B/ |[M:9/8] z2 =G- G-G/4 z/4 z/ z z ^G3/2-G/4 z/4 | %16
[M:4/4] (3:2:2E3 d3 z4 |[M:3/4] x6 |] %18
V:4
 x8 | x8 | x8 | x8 | x8 | x8 | x8 | x8 |[M:27/32] x27/4 |[M:1/4] x2 |[M:4/4] x481/60 | %11
 z2 E2- E/4 z/4 z/ z z2 | x8 | G2- [GA-]/<A/-A- A/4 z/4 z/ z z2 | z2 E2- E/4 z/4 z/ z z2 | %15
[M:9/8] z3 z3 z z z/ F/ |[M:4/4] x8 |[M:3/4] x6 |] %18
V:5
 x8 | x8 | x6[K:bass] x2 | x8 | x8 | x8 | x6[K:bass] x2 | x8 |[M:27/32] x27/4 |[M:1/4] x2 | %10
[M:4/4] x481/60 | z4 (3A,3 z z2 | z4 (3:2:2[F,B,]3 [B,,B,]3 | (3:2:2[E,B,]3 [E,C]3 z4 | %14
 z4 (5:4:4C,2[K:treble] B/[K:bass] C,/- C,2 | %15
[M:9/8] [F,F]2- [F,F]/4 z/4 z/ z D2- D-[D,-A,-D]/<[D,A,]/-[D,A,]/[D,A,D]/ | %16
[M:4/4] z4[K:treble] (5:4:5E2- E/[K:bass] [E,A,C]/-[E,A,C]3/2[E,A,E]/ |[M:3/4] E,3- E,3/4 z/4 z2 |] %18
V:6
 x8 | x8 | x8 | x8 | x8 | x8 | x8 | x8 |[M:27/32] x27/4 |[M:1/4] x2 |[M:4/4] x481/60 | x8 | x8 | %13
 x8 | x8 |[M:9/8] z3 z F2- F-F/4 z/4 z/ z |[M:4/4] x8 |[M:3/4] x6 |] %18
V:7
 x8 | x8 | x6[K:bass] x2 | x8 | x8 | x8 | x6[K:bass] x2 | x8 |[M:27/32] x27/4 |[M:1/4] x2 | %10
[M:4/4] x481/60 | x8 | x8 | x8 | x28/5[K:treble] x2/5[K:bass] x2 |[M:9/8] z3 z D,2- D, z z | %16
[M:4/4] x2[K:treble] x4[K:bass] x2 |[M:3/4] x6 |] %18

